X:1
T:014 - O Deus de AbraÃ£o
T:Letra: Daniel Ben Judah Dayyam (Sec.XV) Parafrase de Thomas Olivers (1725-1799)
T:Trad.: Robert Hawkey Moreton (1844-1917)
T:MÃºsica: Melodia Hebraica
M:4/2
L:1/4
Q:1/2=115
K:F#maj
V:1
A,2| "D#m"D2 E2 F2 "C#"G2| "F#"A6 F2| "C#"G2 A2 "B"B2 "C#"c2| "F#"A4 z2 "C#"E2| "F#"F2 G2 A2 "B"B2| "F#"c2 E2 F2 "B"B2| "F#/C#"A4 "C#7"G4 | "F#"F4 z2 F2 | A2 A2 A2 A2| "C#"G6 (FE) | ("D#m"DE) (FG) A2 D2 | "A#7"^^C4 z2 A,2 | "D#m"D2 E2 F2 "C#"G2| "F#"A2 (GA) "G#m"B2 (AG) | "D#m/A#"F4 "A#7"E4 | "D#m"D4 z2 |]
w:1.~Ao Deus deA-braÃ£o lou-vai, Do vas-to cÃ©u Se-nhor, E-ter-noe po-de-ro-so Pai, E Deus dea-mor, Au-gus-to Deus Jeo-vÃ¡, Que_ ter_rae_ cÃ©u cri-ou, Mi-nhaal-mao No-mea-ben-Ã§o-a-rÃ¡ Do_ gran-deEu Sou.
w:2.~Ao Deus deA-braÃ£o lou-vai; Eis, por man-da-do seu, Mi-nhaal-ma dei-xaa ter-rae vai Go-zar no cÃ©u. O mun-do des-pre-zei, Seu_ lu_croe_ seu lou-vor, E Deus por meu qui-nhÃ£o to_mei E_ pro-te-tor.
w:3.~Meu gui-a Deus se-rÃ¡; Seu in-fi-ni-toa-mor Fe-liz em tu-do me fa-rÃ¡ Por on-deeu for. To-mou-me pe-la mÃ£o, Em_ tre_vas_ deu-me luz, E dÃ¡-mee-ter-na sal-va_Ã§Ã£o Por_ meu Je-sus.
w:4.~Meu Deus por si ju-rou, E nE-le con-fi-ei, E pa-rao cÃ©u que pre-pa-rou Eu su-bi-rei. Seu ros-toi-rei eu ver, Fi_a_doem_ seu a-mor, Eeu hei de sem-preen-gran-de_cer Meu_ Re-den-tor.          		W:
W:
W:
W:1. Ao Deus de AbraÃ£o louvai,
W:Do vasto cÃ©u Senhor,
W:Eterno e poderoso Pai,
W:E Deus de amor,
W:Augusto Deus JeovÃ¡,
W:Que terra e cÃ©u criou,
W:Minha alma o Nome abenÃ§oarÃ¡
W:Do grande Eu-Sou.
W:
W:2. Ao Deus de AbraÃ£o louvai;
W:Eis, por mandado seu,
W:Minha alma deixa a terra e vai
W:Gozar no cÃ©u.
W:O mundo desprezei,
W:Seu lucro e seu louvor,
W:E Deus por meu quinhÃ£o tomei
W:E protetor.
W:
W:
W:
W:3. Meu guia Deus serÃ¡;
W:Seu infinito amor
W:Feliz em tudo me farÃ¡
W:Por onde eu for.
W:Tomou-me pela mÃ£o,
W:Em trevas deu-me luz,
W:E dÃ¡-me eterna salvaÃ§Ã£o
W:Por meu Jesus.
W:
W:4. Meu Deus por si jurou,
W:E nEle confiei,
W:E para o cÃ©u que preparou 
W:Eu subirei.
W:Seu rosto irei eu ver,
W:Fiado em seu amor,
W:E eu hei de sempre engrandecer
W:Meu Redentor.
W:
W:
W:

